assets/Ice/Flat/ice_flat.svg

<svg width="32" height="32" viewBox="0 0 32 32" fill="none" xmlns="http://www.w3.org/2000/svg">
<path d="M14.7031 11.7763L29.0454 6.37184C29.6199 6.59597 30 7.15013 30 7.76919V23.58C30 24.4189 29.4764 25.1686 28.6889 25.4576L17.3778 29.6077C16.5843 29.8989 15.7217 29.9303 14.9133 29.7021C15.4666 29.7981 16 29.3649 16 28.7754V13.7154C16 12.8641 15.4864 12.097 14.7031 11.7763Z" fill="#00A6ED"/>
<path d="M6.19068 11.1004C5.97654 11.0698 5.72569 11.1321 5.54879 11.3418L4.11293 13.0153L4.05744 13.0708L4.04059 13.0917C3.67428 13.5465 3.46997 14.129 3.46997 14.7854C3.46997 16.2863 4.59401 17.6944 6.04774 17.9087C6.09129 17.9166 6.13054 17.9205 6.15108 17.9225L6.15522 17.9229L6.18045 17.9256L6.18348 17.926L6.21419 17.9321L6.24702 17.9343C7.61147 18.0244 8.68261 16.9841 8.76888 15.5985C8.81633 14.9263 8.63555 14.2849 8.30715 13.7454L8.3018 13.7369C8.22588 13.6176 8.15058 13.5101 8.08195 13.412L8.08056 13.41L6.7215 11.4413L6.71684 11.4348C6.61414 11.291 6.43557 11.1354 6.19068 11.1004Z" fill="#00A6ED"/>
<path d="M11.48 18.5154C11.48 17.6568 12.155 16.9436 13.0563 17.0698C13.8979 17.1775 14.5 17.9801 14.5 18.7954C14.5 19.6651 13.8164 20.3526 12.928 20.2415L12.9193 20.2404C12.0893 20.1218 11.48 19.3396 11.48 18.5154Z" fill="#00A6ED"/>
<path d="M8.80642 21.8398C7.90506 21.7136 7.22998 22.4268 7.22998 23.2854C7.22998 24.1096 7.83931 24.8918 8.66927 25.0104C9.57277 25.1394 10.25 24.4253 10.25 23.5654C10.25 22.7376 9.64568 21.9472 8.80642 21.8398Z" fill="#00A6ED"/>
<path d="M2 7.76193C2 7.14783 2.37403 6.59762 2.94079 6.37006C2.52415 6.58561 2.49823 7.17149 2.86303 7.43312L10.8657 8.73058L14.623 11.7454C15.4512 12.0454 16.0001 12.8354 16.0001 13.7154V28.7754C16.0001 29.4254 15.3515 29.8854 14.7428 29.6554L3.16756 25.4154C2.46905 25.1654 2.00006 24.4954 2.00006 23.7454L2 7.76193ZM5.92997 11.6654L4.47997 13.3554L4.42997 13.4054C4.13997 13.7654 3.96997 14.2354 3.96997 14.7854C3.96997 16.0654 4.93997 17.2454 6.12997 17.4154C6.15496 17.4204 6.17998 17.4229 6.20497 17.4254C6.22997 17.4279 6.25497 17.4304 6.27997 17.4354C7.33997 17.5054 8.19997 16.7054 8.26997 15.5654C8.30997 15.0054 8.15997 14.4654 7.87997 14.0054C7.80999 13.8954 7.73995 13.7954 7.66997 13.6954L6.30997 11.7254C6.25997 11.6554 6.18997 11.6054 6.11997 11.5954C6.04997 11.5854 5.97997 11.6054 5.92997 11.6654ZM7.72998 23.2854C7.72998 23.8854 8.17998 24.4354 8.73998 24.5154C9.29998 24.5954 9.74998 24.1654 9.74998 23.5654C9.74998 22.9554 9.29998 22.4054 8.73998 22.3354C8.17998 22.2554 7.72998 22.6854 7.72998 23.2854ZM12.99 17.5654C12.43 17.4854 11.98 17.9154 11.98 18.5154C11.98 19.1154 12.43 19.6654 12.99 19.7454C13.55 19.8154 14 19.3954 14 18.7954C14 18.1954 13.55 17.6354 12.99 17.5654Z" fill="#0074BA"/>
<path d="M17.2801 11.7754L28.9801 7.51538C29.5301 7.31538 29.5301 6.53538 28.9801 6.34538L17.2801 2.08538C16.4501 1.78538 15.5401 1.78538 14.7101 2.08538L3.02008 6.33538C2.47008 6.53538 2.47008 7.31538 3.02008 7.51538L14.7101 11.7754C15.5401 12.0754 16.4501 12.0754 17.2801 11.7754Z" fill="#83CBFF"/>
<path d="M20.63 13.4154C20.7 13.4054 20.76 13.4254 20.81 13.4854L22.14 15.0354C22.15 15.0454 22.16 15.0554 22.16 15.0654L22.17 15.0854C22.44 15.4154 22.59 15.8454 22.59 16.3454C22.59 17.5254 21.7 18.6054 20.61 18.7554C20.56 18.7654 20.52 18.7654 20.47 18.7654C19.5 18.8254 18.71 18.0954 18.64 17.0554C18.61 16.5454 18.74 16.0454 18.99 15.6254C19.05 15.5254 19.11 15.4354 19.18 15.3454L20.43 13.5354C20.5 13.4654 20.57 13.4254 20.63 13.4154Z" fill="#83CBFF"/>
<path d="M26.74 19.7554C27.3 19.6754 27.75 20.1054 27.75 20.7054C27.75 21.3054 27.3 21.8554 26.74 21.9354C26.18 22.0154 25.73 21.5854 25.73 20.9854C25.73 20.3854 26.18 19.8354 26.74 19.7554Z" fill="#83CBFF"/>
</svg>

<svg xmlns="http://www.w3.org/2000/svg" width="32" height="32" fill="none"><path fill="#00A6ED" d="m14.703 11.776 14.342-5.404A1.5 1.5 0 0 1 30 7.769V23.58a2 2 0 0 1-1.311 1.878l-11.311 4.15a4 4 0 0 1-2.465.094.937.937 0 0 0 1.087-.927v-15.06c0-.85-.514-1.618-1.297-1.939ZM6.19 11.1a.702.702 0 0 0-.641.242l-1.436 1.673-.056.056-.016.02c-.367.456-.571 1.038-.571 1.694 0 1.501 1.124 2.91 2.578 3.124.043.008.083.012.103.014h.004l.025.003h.003l.031.006.033.002c1.364.09 2.436-.95 2.522-2.336a3.138 3.138 0 0 0-.462-1.853l-.005-.008c-.076-.12-.151-.227-.22-.325l-.001-.002-1.36-1.969-.004-.006a.798.798 0 0 0-.526-.335ZM11.48 18.515c0-.858.675-1.571 1.576-1.445.842.107 1.444.91 1.444 1.725 0 .87-.684 1.558-1.572 1.446h-.009c-.83-.12-1.439-.901-1.439-1.726ZM8.806 21.84c-.9-.126-1.576.587-1.576 1.445 0 .825.61 1.607 1.44 1.725.903.13 1.58-.585 1.58-1.445 0-.827-.604-1.618-1.444-1.725Z"/><path fill="#0074BA" d="M2 7.762a1.5 1.5 0 0 1 .94-1.392.63.63 0 0 0-.077 1.063l8.003 1.298 3.757 3.014c.828.3 1.377 1.09 1.377 1.97v15.06a.934.934 0 0 1-1.257.88l-11.575-4.24A1.772 1.772 0 0 1 2 23.745V7.762Zm3.93 3.903-1.45 1.69-.05.05c-.29.36-.46.83-.46 1.38 0 1.28.97 2.46 2.16 2.63.025.005.05.008.075.01.025.003.05.005.075.01 1.06.07 1.92-.73 1.99-1.87.04-.56-.11-1.1-.39-1.56-.07-.11-.14-.21-.21-.31l-1.36-1.97a.301.301 0 0 0-.19-.13.202.202 0 0 0-.19.07Zm1.8 11.62c0 .6.45 1.15 1.01 1.23.56.08 1.01-.35 1.01-.95 0-.61-.45-1.16-1.01-1.23-.56-.08-1.01.35-1.01.95Zm5.26-5.72c-.56-.08-1.01.35-1.01.95s.45 1.15 1.01 1.23c.56.07 1.01-.35 1.01-.95s-.45-1.16-1.01-1.23Z"/><path fill="#83CBFF" d="m17.28 11.775 11.7-4.26c.55-.2.55-.98 0-1.17l-11.7-4.26c-.83-.3-1.74-.3-2.57 0L3.02 6.335c-.55.2-.55.98 0 1.18l11.69 4.26c.83.3 1.74.3 2.57 0ZM20.63 13.415c.07-.01.13.01.18.07l1.33 1.55c.01.01.02.02.02.03l.01.02c.27.33.42.76.42 1.26 0 1.18-.89 2.26-1.98 2.41-.05.01-.09.01-.14.01-.97.06-1.76-.67-1.83-1.71-.03-.51.1-1.01.35-1.43.06-.1.12-.19.19-.28l1.25-1.81c.07-.07.14-.11.2-.12ZM26.74 19.755c.56-.08 1.01.35 1.01.95s-.45 1.15-1.01 1.23c-.56.08-1.01-.35-1.01-.95s.45-1.15 1.01-1.23Z"/></svg>
